X:1044
T:BAL PALUDIER
Z: Yves BELOTTEAU
M:4/4
L:1/8
Q:1/4=120
K:G
|:EE A3/2G/2Ac|BAG2 E z A3/2G/2|AcBA G3/2 z/2 EE:|
|:EEEE A3/2G/2AB|BcBE EEFG|A3/2G/2AB cBA3/2 z/2 :|


